src/16/actions/edit-select-all.svg

<svg xmlns="http://www.w3.org/2000/svg" viewBox="0 0 16 16"><path d="M2 2v3h1V3h2V2H2zm9 0v1h2v2h1V2h-3zM4 4v3h3V4H4zm5 0v3h3V4H9zM4 9v3h3V9H4zm5 0v3h3V9H9zm-7 2v3h3v-1H3v-2H2zm11 0v2h-2v1h3v-3h-1z" fill="currentColor" color="#5d656b"/></svg>

<svg xmlns="http://www.w3.org/2000/svg" viewBox="0 0 16 16">
  <defs id="defs3051">
    <style type="text/css" id="current-color-scheme">
      .ColorScheme-Text {
        color:#5d656b;
      }
      </style>
  </defs>
 <path style="fill:currentColor;fill-opacity:1;stroke:none" 
     d="M 2 2 L 2 5 L 3 5 L 3 3 L 5 3 L 5 2 L 3 2 L 2 2 z M 11 2 L 11 3 L 13 3 L 13 4 L 13 5 L 14 5 L 14 3 L 14 2 L 11 2 z M 4 4 L 4 7 L 7 7 L 7 4 L 4 4 z M 9 4 L 9 7 L 12 7 L 12 4 L 9 4 z M 4 9 L 4 12 L 7 12 L 7 9 L 4 9 z M 9 9 L 9 12 L 12 12 L 12 9 L 9 9 z M 2 11 L 2 12 L 2 13 L 2 14 L 5 14 L 5 13 L 3 13 L 3 12 L 3 11 L 2 11 z M 13 11 L 13 12 L 13 13 L 12 13 L 11 13 L 11 14 L 12 14 L 13 14 L 14 14 L 14 12 L 14 11 L 13 11 z "
     class="ColorScheme-Text"
     />
</svg>
